X:1
T:Sarah (Arnold), SM
T:W. Arnold
T:Sarah (Arnold), SM
T:Public Domain
C:W. Arnold
Z:Public Domain
%%score ( 1 2 ) ( 3 4 )
L:1/8
M:3/4
K:Ab
V:1 treble 
V:2 treble 
V:3 bass 
V:4 bass 
V:1
 [CA]2 | (c2 z D) [CA]2 | Bc [Dd]2 [Ec]2 | [EB]4 [Ec]2 | ([Dd]2 [Ec]2) [FB]2 | [Ec]4 (ED) | [CA]6 | %7
 [Ec]2 [Fc]2 [_Gd]2 | [Fd]4 [FB]2 | [EB]4 [EB]2 | [Ec]4 [Ec]2 | ([Ec][CA] [DB][Ec]) ([Fd][Ec]) | %12
 [DB]2 [CA]2 [DG]2 | [CA]6 |] %14
V:2
 x2 | E3 B2 x | F2 x4 | x6 | x6 | x4 B2 | x6 | x6 | x6 | x6 | x6 | x6 | x6 | x6 |] %14
V:3
 [A,,A,]2 | [A,,A,]2 [B,,G,]2 [B,,A,]2 | ([D,F,]2 [B,,G,]2) [A,,A,]2 | [E,G,]4 A,2 | %4
 (F,2 E,2) [D,A,]2 | [E,A,]4 [E,G,]2 | [A,,A,]6 | A,2 A,2 A,2 | [D,A,]4 [D,A,]2 | G,2 B,2 [E,D]2 | %10
 [A,,C]4 [A,,A,]2 | [A,,A,]4 [A,,A,]2 | [D,F,]2 E,2 [E,B,]2 | [A,,A,]6 |] %14
V:4
 x2 | x6 | x6 | x4 A,2 | A,4 x2 | x6 | x6 | A,2 A,2 A,2 | x6 | E,4 x2 | x6 | x6 | x2 E,2 x2 | x6 |] %14

